!!!XEN: Sitting with the turtle
!!!AGN: Dream song
!!!COM: Anonymous
!!!CNT: Native American -- Ojibway
!!!TXO: Ojibway
!!!MLC: Waba'cing village, Red Lake reservation, northern Minnesota, U.S.A.
!!!MRD: 1909-1912///
!!!MPN: Ki'miwun ("Rainy")
**kern
*MM96
*Imale
*k[b-e-a-d-g-c-]
*clefF4
*M2/4
=1
16e-
16e-
16.e-
32e-
16d-
8B-
16B-
=2
4B-
8.B-
16d-
=3
*M3/4
[2d-
8d-]
8d-
=4
*M2/4
8.d-
16d-
8d-
8B-
=5
4B-
8.B-
16B-
=6
*M3/4
2.B-
=7
*M2/4
16d-
16B-
16.d-
32d-
8B-
8G-
=8
16G-
8.E-
8.E-
16E-
=9
*M3/4
[2E-
8E-]
8E-
=10
*M2/4
8.D-
16D-
16D-
8.BB-
=11
4BB-
8.BB-
16D-
=12
*M3/4
[2D-
8.D-]
16D-
=13
*M2/4
8.D-
16D-
16D-
8.BB-
=14
4BB-
8.BB-
16BB-
=15
2BB-
==
*-
!!!OCL: Frances Densmore
!!!YOR: Chippewa [i.e., Ojibway] Music--II, Bulletin 53 of the Bureau of American Ethnology, Smitsonian Institution
!!!ONM: 139
!!!PPG: 262
!!!PUB: published
!!!PPR: Government Printing Office
!!!PPP: Washington, D.C.
!!!PDT: 1912///
!!!EST: missing clef changes, text, drum tempo, and drum part
!!!YEC: Copyright 1998 Paul von Hippel
!!!YEM: Rights to all derivate electronic formats reserved.
!!!EFL: 39/42
